X:1686
L:1/8
M:4/4
K:D
"^A" AG |"D" FDFA dfaf |"G" gfec"A" dcBA |"G" G2 BG"D" F2 AF |"Em" EDEF"A7" GBAG |"D" FDFA dfaf | 
"G" gfec"A" dcBA |"D" dfaf"A7" bgec |"D" d2 d2 d2 :|

